public/fonts/icons/timer.svg

<?xml version="1.0" encoding="utf-8"?>

<!DOCTYPE svg PUBLIC "-//W3C//DTD SVG 1.1//EN" "http://www.w3.org/Graphics/SVG/1.1/DTD/svg11.dtd">
<svg version="1.1" xmlns="http://www.w3.org/2000/svg" xmlns:xlink="http://www.w3.org/1999/xlink" width="32" height="32" viewBox="0 0 32 32">
<g>
</g>
	<path d="M12 11.5c0-0.828 0.671-1.5 1.5-1.5s1.5 0.672 1.5 1.5v4.451l1.229-0.71c0.717-0.414 1.635-0.169 2.049 0.549 0.414 0.717 0.168 1.635-0.549 2.049l-3.465 2c-0.717 0.414-1.635 0.169-2.049-0.549-0.032-0.055-0.052-0.111-0.076-0.168-0.010-0.021-0.020-0.043-0.029-0.064-0.015-0.040-0.026-0.079-0.037-0.118-0.043-0.14-0.073-0.286-0.073-0.44v-7zM15 5.088c6.749 0.747 12 6.464 12 13.412 0 7.456-6.044 13.5-13.5 13.5s-13.5-6.044-13.5-13.5c0-6.948 5.251-12.665 12-13.412v-2.088c0 0 0.325-1-1-1h-2v-2h9v2h-2c0 0-1-0.423-1 1v2.088zM21.223 25.516c1.599-1.751 2.63-4.025 2.752-6.516h-1.975v-1h1.975c-0.122-2.492-1.152-4.765-2.752-6.516l-1.359 1.358-0.707-0.707 1.359-1.358c-1.753-1.593-4.028-2.621-6.516-2.75v1.973h-1v-1.976c-2.505 0.114-4.786 1.135-6.54 2.73l1.382 1.382-0.707 0.707-1.382-1.382c-1.594 1.752-2.616 4.034-2.73 6.539h1.977v1h-1.974c0.129 2.491 1.153 4.77 2.744 6.523l1.366-1.365 0.707 0.707-1.367 1.367c1.751 1.6 4.025 2.629 6.524 2.744v-1.976h1v1.973c2.488-0.129 4.763-1.157 6.515-2.751l-1.358-1.357 0.707-0.707 1.359 1.358z" fill="#000000"></path>
</svg>

<svg xmlns="http://www.w3.org/2000/svg" width="32" height="32" viewBox="0 0 32 32"><title>Timer</title><path d="M12 11.5a1.5 1.5 0 0 1 3 0v4.45l1.23-.71a1.5 1.5 0 1 1 1.5 2.6l-3.466 2a1.5 1.5 0 0 1-2.05-.55c-.03-.055-.05-.11-.075-.168l-.03-.064c-.015-.04-.026-.08-.037-.118A1.49 1.49 0 0 1 12 18.5v-7zm3-6.412c6.75.747 12 6.464 12 13.412C27 25.956 20.956 32 13.5 32S0 25.956 0 18.5C0 11.552 5.25 5.835 12 5.088V3s.325-1-1-1H9V0h9v2h-2s-1-.423-1 1v2.088zm6.223 20.428c1.6-1.75 2.63-4.025 2.752-6.516H22v-1h1.975c-.122-2.492-1.152-4.765-2.752-6.516l-1.36 1.358-.706-.707 1.36-1.358c-1.754-1.593-4.03-2.62-6.517-2.75V10h-1V8.024c-2.505.114-4.786 1.135-6.54 2.73l1.382 1.382-.707.707-1.382-1.382C4.16 13.214 3.137 15.496 3.023 18H5v1H3.026c.13 2.49 1.153 4.77 2.744 6.523l1.366-1.365.707.707-1.367 1.367c1.75 1.6 4.025 2.63 6.524 2.744V27h1v1.973c2.488-.13 4.763-1.157 6.515-2.75l-1.358-1.358.707-.707 1.36 1.358z"/></svg>
